X:256
T:Chinese Polka
R:Polka
O:French Canadian
M:2/4
L:1/8
K:G
|:ge dB |G2 GG|AB GE |G2 GG|EG GE|G2 GG|Bd dB|A4|
|ge dB |G2 GG|AB GE |G2 GG|Bd dd|ed BG|B2A2|G4:|
|:AA AA|Ad dd|ee de|f2d2| AA AA |Ag gg|fe fe|d4|
|AA AA |Ad dd|ee de|f2 d2|AA AA|Ag gg|fefe|d2c2:|
